X:633
T:Wir May 
C:Joe Buchanan's Scottish Tome - Page 189.1
I:189 1
C:Tom Anderson
R:Reel
Z:Carl Allison
L:1/8
M:4/4
K:D
A | d2 (AG) (FG)AF | B2 GE CDEC | DEFG (AF)Ac | BGge dcBA |
d2 AG FGAF | B2 GE CDEC | DFAd B>Gge |  [df]2 [df]2- [df]2 :|
g2 | (fd)f<a ece/a | (BG)B<d A2 GF | (GF)GB (AB)cd | f<dgf e2 (fg) |
(fd)f<a (ec)e/a | (BG)B<d A2 GF | (GA)BG Agec | [df]2 ([df]2 [df]2) (eg) |
(fd)f<a (ec)e<a | (BG)B<d A2 GF | (GA)BG (AB)cd | f<dgf e2 (fe) |
d2 AG (FG)AF | B2 (GE) CDEC | DFAd B<Gge | [df]2 [df]2 [df]2 |]

